src/images/Link/Elements.svg

<svg fill="none" height="105" viewBox="0 0 580 105" width="580" xmlns="http://www.w3.org/2000/svg"><g stroke-miterlimit="10" stroke-width="5"><path d="m27.236 100c-32.31467 0-32.31467-32.3333 0-32.3333 32.3147 0 32.3147-32.3334 0-32.3334-32.31467 0-32.31467-32.3333 0-32.3333h64.764" stroke="#3a9a7e"/><path d="m172.125 100c34.246-1.1375 32.597-46.6375-1.649-45.5-34.247 1.1375-35.769-44.2361-1.649-45.5" stroke="#fa072f"/><path d="m253 99.6h53.2c13.5 0 25.9-7 31.6-18.1 7.6-14.6 2.8-34.4-12.6-45.5" stroke="#ecb743"/><path d="m410.122 68.5528c12.478.121 22.755-9.7994 22.877-21.5344.122-12.461-10.888-21.8974-22.877-22.0184-11.989 0-22.388 9.5574-23.122 21.7764v57.2236" stroke="#fa072f"/><path d="m293 28s-36 0-36 36" stroke="#3a9a7e"/><path d="m506.314 78.7808c-1-11.3-11.1-19.7-22-18.7-10.4.9-18.7 10.1-18.3 20.7.3 10.7 9.1 19.4002 19.9 19.7002 7.3-.2 14.6-.5002 21.8-.7002" stroke="#3c85b2"/><path d="m540 36.6c0-36.799997 37-36.799997 37 0v36.8c0 36.8-37 36.8-37 0v-18.2994" stroke="#3a9a7e"/><path d="m206 46c9.941 0 18-8.0589 18-18s-8.059-18-18-18-18 8.0589-18 18 8.059 18 18 18z" stroke="#e77621"/><path d="m81.1878 102.626c-12.5-9.7004-14.9-27.9004-5.3-40.4004 9.7-12.7 28.0002-14.8 40.5002-5.4 12.7 9.6 15.2 28.1 5.4 40.9" stroke="#0a95c8"/></g></svg>

<svg width="580" height="105" viewBox="0 0 580 105" fill="none" xmlns="http://www.w3.org/2000/svg">
<path d="M27.236 100C-5.07867 100 -5.07867 67.6667 27.236 67.6667C59.5507 67.6667 59.5507 35.3333 27.236 35.3333C-5.07867 35.3333 -5.07867 3 27.236 3H92" stroke="#3A9A7E" stroke-width="5" stroke-miterlimit="10"/>
<path d="M172.125 100C206.371 98.8625 204.722 53.3625 170.476 54.5C136.229 55.6375 134.707 10.2639 168.827 9" stroke="#FA072F" stroke-width="5" stroke-miterlimit="10"/>
<path d="M253 99.6H306.2C319.7 99.6 332.1 92.6 337.8 81.5C345.4 66.9 340.6 47.1 325.2 36" stroke="#ECB743" stroke-width="5" stroke-miterlimit="10"/>
<path d="M410.122 68.5528C422.6 68.6738 432.877 58.7534 432.999 47.0184C433.121 34.5574 422.111 25.121 410.122 25C398.133 25 387.734 34.5574 387 46.7764V104" stroke="#FA072F" stroke-width="5" stroke-miterlimit="10"/>
<path d="M293 28C293 28 257 28 257 64" stroke="#3A9A7E" stroke-width="5" stroke-miterlimit="10"/>
<path d="M506.314 78.7808C505.314 67.4808 495.214 59.0808 484.314 60.0808C473.914 60.9808 465.614 70.1808 466.014 80.7808C466.314 91.4808 475.114 100.181 485.914 100.481C493.214 100.281 500.514 99.9808 507.714 99.7808" stroke="#3C85B2" stroke-width="5" stroke-miterlimit="10"/>
<path d="M540 36.6C540 -0.199997 577 -0.199997 577 36.6V73.4C577 110.2 540 110.2 540 73.4V55.1006" stroke="#3A9A7E" stroke-width="5" stroke-miterlimit="10"/>
<path d="M206 46C215.941 46 224 37.9411 224 28C224 18.0589 215.941 10 206 10C196.059 10 188 18.0589 188 28C188 37.9411 196.059 46 206 46Z" stroke="#E77621" stroke-width="5" stroke-miterlimit="10"/>
<path d="M81.1878 102.626C68.6878 92.9256 66.2878 74.7256 75.8878 62.2256C85.5878 49.5256 103.888 47.4256 116.388 56.8256C129.088 66.4256 131.588 84.9256 121.788 97.7256" stroke="#0A95C8" stroke-width="5" stroke-miterlimit="10"/>
</svg>
